packages/kaspersky-hexa-ui-icons/src/iconsSVGs/48/FileProtection.svg

<svg xmlns="http://www.w3.org/2000/svg" width="48" height="48" fill="none" viewBox="0 0 48 48"><path fill="currentColor" fill-rule="evenodd" d="M25 11v2h-8v-2zm7 5H10v2h22zm0 4H10v2h22zm-2 4H10v2h20zm-2 4H10v2h18zm0 4H10v2h18zm-18 6h18v-2H10zm-6 8h27v2H2V0h30.41L40 7.59V21h-2V9h-7V2H4zM33 7h3.59L33 3.41zm15 22.2v9.09c0 6.53-8.32 9.47-8.67 9.6L39 48l-.34-.12c-.35-.12-8.66-3.13-8.66-9.59V29.2l9-5.38zm-2 1.13-7-4.18-7 4.18v8c0 4.5 5.55 7 7 7.58 1.42-.57 7-3.11 7-7.58zm-10.29 4.46-1.42 1.42 3.71 3.7 6.71-6.7-1.42-1.42-5.29 5.3z" clip-rule="evenodd"/></svg>

<svg width="48" height="48" viewBox="0 0 48 48" fill="none" xmlns="http://www.w3.org/2000/svg">
<path fill-rule="evenodd" clip-rule="evenodd" d="M25 11V13H17V11H25ZM32 16H10V18H32V16ZM32 20H10V22H32V20ZM30 24H10V26H30V24ZM28 28H10V30H28V28ZM28 32H10V34H28V32ZM10 38H28V36H10V38ZM4 46H31V48H2V0H32.41L40 7.59V21H38V9H31V2H4V46ZM33 7H36.59L33 3.41V7ZM48 29.2V38.29C48 44.82 39.68 47.76 39.33 47.89L39 48L38.66 47.88C38.31 47.76 30 44.75 30 38.29V29.2L39 23.82L48 29.2ZM46 30.33L39 26.15L32 30.33V38.33C32 42.83 37.55 45.33 39 45.91C40.42 45.34 46 42.8 46 38.33V30.33ZM35.71 34.79L34.29 36.21L38 39.91L44.71 33.21L43.29 31.79L38 37.09L35.71 34.79Z"  fill="currentColor"/>
</svg>
